packages/tokens/icons/refresh/size24Px.svg

<svg viewBox="0 0 24 24" fill="none" xmlns="http://www.w3.org/2000/svg" width="1em" height="1em"><path d="M19 5.99991C17.1491 4.04989 15.6908 2.93732 12.8838 2.65432C10.8117 2.44542 8.73283 2.977 7.00134 4.15851C5.26986 5.34002 3.99291 7.09834 3.38808 9.1339C2.78325 11.1695 2.88795 13.3563 3.68434 15.3218C4.48074 17.2874 5.91956 18.91 7.75565 19.9132C9.59173 20.9164 11.7115 21.2382 13.7537 20.8236C15.796 20.4091 17.6344 19.2839 18.9557 17.6399C20.277 15.9958 20.9995 13.9345 21 11.8072" stroke="currentColor" stroke-miterlimit="10" stroke-linecap="round"/><path d="M19.5 2.5V6.5H15.5" stroke="currentColor" stroke-miterlimit="10" stroke-linecap="round" stroke-linejoin="round"/></svg>

<svg xmlns="http://www.w3.org/2000/svg" fill="none" viewBox="0 0 24 24" width="1em" height="1em"><path stroke="currentColor" stroke-linecap="round" stroke-miterlimit="10" d="M19 6c-1.85-1.95-3.31-3.063-6.116-3.346A8.853 8.853 0 0 0 7 4.16a9.182 9.182 0 0 0-3.613 4.975 9.381 9.381 0 0 0 .296 6.188 9.127 9.127 0 0 0 4.072 4.591 8.832 8.832 0 0 0 5.998.91 8.968 8.968 0 0 0 5.202-3.183A9.318 9.318 0 0 0 21 11.807"/><path stroke="currentColor" stroke-linecap="round" stroke-linejoin="round" stroke-miterlimit="10" d="M19.5 2.5v4h-4"/></svg>
